X: 3219
T: Before The Worms
R: jig
M: 6/8
K: Eminor
BAB g2a|fge ^dec|[M:9/8]BEE cEE ^def|
[M:6/8]BAB g2a|fge ^dec|1 [M:9/8]BGE AFD E2A:|2 [M:9/8] BGE AFD FGA||
[M:6/8]B2c A2B|GBd gfg|fdg agf|[M:9/8]dGG eGG fdc|
[M:6/8]B2c A2B|GBd gfg|fdg fga|1 [M:9/8]bag fga g2d:|2 [M:9/8]bga fge ^d2c||

